src/assets/logos/fitchain.svg

<svg height="144" viewBox="0 0 129 144" width="129" xmlns="http://www.w3.org/2000/svg"><path d="m62.7559226 99.8039569c-.7570714-.3951165-40.6088182-23.2995257-41.4651778-23.8181161-.6205504-.3704217-.9556476-.6667591-1.0921687-.9630965-.1861651-.3827691-.1985761-2.6299941-.1985761-24.9911182 0-13.9031617.049644-24.7071283.1116991-24.8676444.062055-.1605161.2482201-.4198113.4219742-.5926747.2482202-.2346004 26.3113371-15.28606939 40.4722972-23.36126274 1.9485283-1.11126514 2.1719264-1.21004426 2.7800658-1.21004426.3599192 0 .8191265.08643173 1.0301137.19755825 1.3031558.66675908 41.936796 24.07741135 42.160194 24.28731695.682606.6173696.645373-.1975582.657784 15.4218907v14.483489l.843948.3951165c1.538965.728496 2.618723 1.9632351 3.214451 3.667175.397153 1.1483073.409564 2.8398998.037233 4.0375966-1.179045 3.7289119-5.535309 5.5069362-9.159324 3.7412593-2.010583-.9754438-3.5123149-3.4202271-3.5123149-5.7291891 0-2.3583516 1.5389649-4.8154823 3.5991919-5.7662314l.744661-.3457269-.037233-13.5821295-.024822-13.5697821-19.7210919-11.3349044c-10.847221-6.23543218-19.7583247-11.33490444-19.8079688-11.33490444-.1241101 0-39.2436073 22.47225064-39.4421835 22.64511404-.111699.1111265-.1489321 4.5314923-.1241101 21.5955859l.0372331 21.4350698 11.2195512-6.4453378 11.2319623-6.4453378.024822-1.3582129c.024822-1.4446447.2358092-2.2966147.8439485-3.3214481.7694825-1.296476 2.0354054-2.2966146 3.5123153-2.815205 1.1542238-.3827691 3.090341-.3827691 4.1949207.0123474 2.9041759 1.0371808 4.7534161 4.0622914 4.2817978 6.9762756-.2606312 1.6545503-.8935926 2.8275524-2.0726383 3.9017754-2.0974604 1.9138455-5.2746785 2.1854881-7.7817021.6791064l-.7322494-.444506-2.4449686 1.3952551c-14.6822225 8.4085729-20.093422 11.5324627-20.0686 11.606547.024822.1111265 37.170969 21.4597646 37.3199011 21.4597646s37.2950787-21.3609854 37.3199007-21.4597646c.012411-.0493895-8.6008281-5.0253879-19.1501849-11.0756092-10.5493568-6.0378739-19.3611725-11.1249988-19.5597487-11.2978623-.7570715-.5926747-.7198384.1852109-.7198384-15.2984167v-14.199499l-.8315376-.4074639c-3.139985-1.5310764-4.4059078-5.469894-2.8172988-8.729605.4467963-.9137069 1.8740622-2.3213094 2.8048878-2.7658155 2.6559557-1.27178122 5.7090637-.72849604 7.657592 1.3458656 1.2783338 1.3582129 1.8244181 2.8769419 1.7127191 4.7907874-.1241101 2.3953938-1.489321 4.4203658-3.6612474 5.4575466l-.6453724.3086848.024822 13.3351817.037233 13.347529 20.2423541 11.6188944c11.1202632 6.3959483 20.3912862 11.730021 20.5774512 11.8534949.533673.3580743.819127.9260542.819127 1.6792451 0 .8396225-.335098 1.456992-1.030114 1.8891507-.670194.4198113-41.2293687 23.7069896-41.750631 23.9786322-.5088513.2469477-1.60102.2469477-2.0850494-.0123474zm43.5874604-37.2644243c.595728-.2469478.881181-.506243 1.166635-1.074223.843948-1.6545503-.757072-3.5930906-2.531846-3.0621528-.682605.1975582-1.390033.9137069-1.563787 1.580466-.273042.9877912.273042 2.0496668 1.290745 2.5065202.608139.28399 1.042524.2963374 1.638253.0493896zm-52.299988-4.5561871c.8067155-.3457269 1.3279779-1.1483073 1.3279779-2.0743616 0-1.3088234-1.4024439-2.3953937-2.6559557-2.0620142-1.47691.3951165-2.1471044 1.9138455-1.427266 3.1979741.5460844.9630965 1.7499522 1.3705604 2.7552438.9384017zm10.760344-40.0796294c.9804696-.4938956 1.4396769-1.6545503 1.0673467-2.6546889-.4219743-1.074223-1.551376-1.6915925-2.5814897-1.4076025-.7694825.1975582-1.538965 1.0371808-1.6630751 1.7780242-.2606312 1.7656768 1.588609 3.0868476 3.1772181 2.2842672zm-57.027739 108.2642839h4.416v3.84h-4.288v12.992h-4.992v-12.992h-2.656v-3.84h2.656v-.768c0-1.962676.58132752-3.519994 1.744-4.672s2.79998944-1.728 4.912-1.728c.7466704 0 1.4559966.079999 2.128.24s1.2319978.389332 1.68.688l-1.312 3.616c-.5760029-.405335-1.2479962-.608-2.016-.608-1.51467424 0-2.272.831992-2.272 2.496zm9.472-.384h4.992v17.216h-4.992zm2.496-2.4c-.9173379 0-1.6639971-.266664-2.24-.8s-.864-1.194663-.864-1.984.2879971-1.450664.864-1.984 1.3226621-.8 2.24-.8 1.6639971.255997 2.24.768.864 1.151996.864 1.92c0 .832004-.2879971 1.519997-.864 2.064s-1.3226621.816-2.24.816zm18.24 18.784c-.4906691.362668-1.0933298.634666-1.808.816s-1.4666627.272-2.256.272c-2.0480102 0-3.6319944-.522661-4.752-1.568s-1.68-2.581323-1.68-4.608v-7.072h-2.656v-3.84h2.656v-4.192h4.992v4.192h4.288v3.84h-4.288v7.008c0 .725337.1866648 1.285331.56 1.68s.9013299.592 1.584.592c.7893373 0 1.4613306-.213331 2.016-.64zm10.592 1.088c-1.8346758 0-3.4826594-.378663-4.944-1.136s-2.6026626-1.807993-3.424-3.152-1.232-2.869325-1.232-4.576.4106626-3.231993 1.232-4.576 1.9626594-2.394663 3.424-3.152 3.1093242-1.136 4.944-1.136c1.8133424 0 3.3973266.378663 4.752 1.136s2.3413302 1.839993 2.96 3.248l-3.872 2.08c-.8960045-1.578675-2.1866582-2.368-3.872-2.368-1.3013398 0-2.3786624.426662-3.232 1.28s-1.28 2.015993-1.28 3.488.4266624 2.634662 1.28 3.488 1.9306602 1.28 3.232 1.28c1.7066752 0 2.997329-.789325 3.872-2.368l3.872 2.112c-.6186698 1.36534-1.6053266 2.431996-2.96 3.2s-2.9386576 1.152-4.752 1.152zm20.928-17.728c2.133344 0 3.8559934.639994 5.168 1.92s1.968 3.178654 1.968 5.696v9.856h-4.992v-9.088c0-1.36534-.2986637-2.383997-.896-3.056s-1.4613277-1.008-2.592-1.008c-1.258673 0-2.2613296.389329-3.008 1.168s-1.12 1.935992-1.12 3.472v8.512h-4.992v-23.744h4.992v8.32c.6613366-.661337 1.4613286-1.167998 2.4-1.52s1.9626611-.528 3.072-.528zm18.592 0c2.66668 0 4.7146595.63466 6.144 1.904s2.144 3.183987 2.144 5.744v9.824h-4.672v-2.144c-.9386714 1.600008-2.6879872 2.4-5.248 2.4-1.3226733 0-2.4693285-.223998-3.44-.672s-1.7119974-1.066663-2.224-1.856-.768-1.685328-.768-2.688c0-1.600008.6026606-2.858662 1.808-3.776s3.0666541-1.376 5.584-1.376h3.968c0-1.088005-.3306634-1.92533-.992-2.512s-1.6533267-.88-2.976-.88c-.9173379 0-1.8186622.143999-2.704.432s-1.6373302.677331-2.256 1.168l-1.792-3.488c.9386714-.661337 2.0639934-1.173332 3.376-1.536s2.6613264-.544 4.048-.544zm-.384 14.368c.8533376 0 1.6106634-.197331 2.272-.592s1.1306653-.975996 1.408-1.744v-1.76h-3.424c-2.0480102 0-3.072.671993-3.072 2.016 0 .640003.2506642 1.146665.752 1.52s1.189329.56 2.064.56zm13.184-14.112h4.992v17.216h-4.992zm2.496-2.4c-.917338 0-1.663997-.266664-2.24-.8s-.864-1.194663-.864-1.984.287997-1.450664.864-1.984 1.322662-.8 2.24-.8 1.663997.255997 2.24.768.864 1.151996.864 1.92c0 .832004-.287997 1.519997-.864 2.064s-1.322662.816-2.24.816zm17.6 2.144c2.133344 0 3.855993.639994 5.168 1.92s1.968 3.178654 1.968 5.696v9.856h-4.992v-9.088c0-1.36534-.298664-2.383997-.896-3.056s-1.461328-1.008-2.592-1.008c-1.258673 0-2.26133.389329-3.008 1.168s-1.12 1.935992-1.12 3.472v8.512h-4.992v-17.216h4.768v2.016c.661337-.725337 1.482662-1.285331 2.464-1.68s2.058661-.592 3.232-.592z"/></svg>

<svg xmlns="http://www.w3.org/2000/svg" width="129" height="144" viewBox="0 0 129 144">
  <path d="M62.7559226,99.8039569 C61.9988512,99.4088404 22.1471044,76.5044312 21.2907448,75.9858408 C20.6701944,75.6154191 20.3350972,75.3190817 20.1985761,75.0227443 C20.012411,74.6399752 20,72.3927502 20,50.0316261 C20,36.1284644 20.049644,25.3244978 20.1116991,25.1639817 C20.1737541,25.0034656 20.3599192,24.7441704 20.5336733,24.571307 C20.7818935,24.3367066 46.8450104,9.28523761 61.0059705,1.21004426 C62.9544988,0.0987791235 63.1778969,0 63.7860363,0 C64.1459555,0 64.6051628,0.0864317331 64.81615,0.197558247 C66.1193058,0.864317331 106.752946,24.2749696 106.976344,24.4848752 C107.65895,25.1022448 107.621717,24.287317 107.634128,39.9067659 L107.634128,54.3902549 L108.478076,54.7853714 C110.017041,55.5138674 111.096799,56.7486065 111.692527,58.4525464 C112.08968,59.6008537 112.102091,61.2924462 111.72976,62.490143 C110.550715,66.2190549 106.194451,67.9970792 102.570436,66.2314023 C100.559853,65.2559585 99.0581211,62.8111752 99.0581211,60.5022132 C99.0581211,58.1438616 100.597086,55.6867309 102.657313,54.7359818 L103.401974,54.3902549 L103.364741,40.8081254 L103.339919,27.2383433 L83.6188271,15.9034389 C72.7716061,9.66800672 63.8605024,4.56853446 63.8108583,4.56853446 C63.6867482,4.56853446 24.567251,27.0407851 24.3686748,27.2136485 C24.2569758,27.324775 24.2197427,31.7451408 24.2445647,48.8092344 L24.2817978,70.2443042 L35.501349,63.7989664 L46.7333113,57.3536286 L46.7581333,55.9954157 C46.7829553,54.550771 46.9939425,53.698801 47.6020818,52.6739676 C48.3715643,51.3774916 49.6374872,50.377353 51.1143971,49.8587626 C52.2686209,49.4759935 54.2047381,49.4759935 55.3093178,49.87111 C58.2134937,50.9082908 60.0627339,53.9334014 59.5911156,56.8473856 C59.3304844,58.5019359 58.697523,59.674938 57.5184773,60.749161 C55.4210169,62.6630065 52.2437988,62.9346491 49.7367752,61.4282674 L49.0045258,60.9837614 L46.5595572,62.3790165 C31.8773347,70.7875894 26.4661352,73.9114792 26.4909572,73.9855635 C26.5157792,74.09669 63.6619262,95.4453281 63.8108583,95.4453281 C63.9597904,95.4453281 101.105937,74.0843427 101.130759,73.9855635 C101.14317,73.936174 92.5299309,68.9601756 81.9805741,62.9099543 C71.4312173,56.8720804 62.6194016,51.7849555 62.4208254,51.612092 C61.6637539,51.0194173 61.700987,51.7973029 61.700987,36.3136753 L61.700987,22.1141763 L60.8694494,21.7067124 C57.7294644,20.175636 56.4635416,16.2368184 58.0521506,12.9771074 C58.4989469,12.0634005 59.9262128,10.655798 60.8570384,10.2112919 C63.5129941,8.93951068 66.5661021,9.48279586 68.5146304,11.5571575 C69.7929642,12.9153704 70.3390485,14.4340994 70.2273495,16.3479449 C70.1032394,18.7433387 68.7380285,20.7683107 66.5661021,21.8054915 L65.9207297,22.1141763 L65.9455517,35.449358 L65.9827847,48.796887 L86.2251388,60.4157814 C97.345402,66.8117297 106.616425,72.1458024 106.80259,72.2692763 C107.336263,72.6273506 107.621717,73.1953305 107.621717,73.9485214 C107.621717,74.7881439 107.286619,75.4055134 106.591603,75.8376721 C105.921409,76.2574834 65.3622343,99.5446617 64.840972,99.8163043 C64.3321207,100.063252 63.239952,100.063252 62.7559226,99.8039569 Z M106.343383,62.5395326 C106.939111,62.2925848 107.224564,62.0332896 107.510018,61.4653096 C108.353966,59.8107593 106.752946,57.872219 104.978172,58.4031568 C104.295567,58.600715 103.588139,59.3168637 103.414385,59.9836228 C103.141343,60.971414 103.687427,62.0332896 104.70513,62.490143 C105.313269,62.774133 105.747654,62.7864804 106.343383,62.5395326 Z M54.043395,57.9833455 C54.8501105,57.6376186 55.3713729,56.8350382 55.3713729,55.9089839 C55.3713729,54.6001605 53.968929,53.5135902 52.7154172,53.8469697 C51.2385072,54.2420862 50.5683128,55.7608152 51.2881512,57.0449438 C51.8342356,58.0080403 53.0381034,58.4155042 54.043395,57.9833455 Z M64.803739,17.9037161 C65.7842086,17.4098205 66.2434159,16.2491658 65.8710857,15.2490272 C65.4491114,14.1748042 64.3197097,13.5574347 63.289596,13.8414247 C62.5201135,14.0389829 61.750631,14.8786055 61.6265209,15.6194489 C61.3658897,17.3851257 63.2151299,18.7062965 64.803739,17.9037161 Z M7.776,126.168 L12.192,126.168 L12.192,130.008 L7.904,130.008 L7.904,143 L2.912,143 L2.912,130.008 L0.256,130.008 L0.256,126.168 L2.912,126.168 L2.912,125.4 C2.912,123.437324 3.49332752,121.880006 4.656,120.728 C5.81867248,119.575994 7.45598944,119 9.568,119 C10.3146704,119 11.0239966,119.079999 11.696,119.24 C12.3680034,119.400001 12.9279978,119.629332 13.376,119.928 L12.064,123.544 C11.4879971,123.138665 10.8160038,122.936 10.048,122.936 C8.53332576,122.936 7.776,123.767992 7.776,125.432 L7.776,126.168 Z M17.248,125.784 L22.24,125.784 L22.24,143 L17.248,143 L17.248,125.784 Z M19.744,123.384 C18.8266621,123.384 18.0800029,123.117336 17.504,122.584 C16.9279971,122.050664 16.64,121.389337 16.64,120.6 C16.64,119.810663 16.9279971,119.149336 17.504,118.616 C18.0800029,118.082664 18.8266621,117.816 19.744,117.816 C20.6613379,117.816 21.4079971,118.071997 21.984,118.584 C22.5600029,119.096003 22.848,119.735996 22.848,120.504 C22.848,121.336004 22.5600029,122.023997 21.984,122.568 C21.4079971,123.112003 20.6613379,123.384 19.744,123.384 Z M37.984,142.168 C37.4933309,142.530668 36.8906702,142.802666 36.176,142.984 C35.4613298,143.165334 34.7093373,143.256 33.92,143.256 C31.8719898,143.256 30.2880056,142.733339 29.168,141.688 C28.0479944,140.642661 27.488,139.106677 27.488,137.08 L27.488,130.008 L24.832,130.008 L24.832,126.168 L27.488,126.168 L27.488,121.976 L32.48,121.976 L32.48,126.168 L36.768,126.168 L36.768,130.008 L32.48,130.008 L32.48,137.016 C32.48,137.741337 32.6666648,138.301331 33.04,138.696 C33.4133352,139.090669 33.9413299,139.288 34.624,139.288 C35.4133373,139.288 36.0853306,139.074669 36.64,138.648 L37.984,142.168 Z M48.576,143.256 C46.7413242,143.256 45.0933406,142.877337 43.632,142.12 C42.1706594,141.362663 41.0293374,140.312007 40.208,138.968 C39.3866626,137.623993 38.976,136.098675 38.976,134.392 C38.976,132.685325 39.3866626,131.160007 40.208,129.816 C41.0293374,128.471993 42.1706594,127.421337 43.632,126.664 C45.0933406,125.906663 46.7413242,125.528 48.576,125.528 C50.3893424,125.528 51.9733266,125.906663 53.328,126.664 C54.6826734,127.421337 55.6693302,128.503993 56.288,129.912 L52.416,131.992 C51.5199955,130.413325 50.2293418,129.624 48.544,129.624 C47.2426602,129.624 46.1653376,130.050662 45.312,130.904 C44.4586624,131.757338 44.032,132.919993 44.032,134.392 C44.032,135.864007 44.4586624,137.026662 45.312,137.88 C46.1653376,138.733338 47.2426602,139.16 48.544,139.16 C50.2506752,139.16 51.541329,138.370675 52.416,136.792 L56.288,138.904 C55.6693302,140.26934 54.6826734,141.335996 53.328,142.104 C51.9733266,142.872004 50.3893424,143.256 48.576,143.256 Z M69.504,125.528 C71.637344,125.528 73.3599934,126.167994 74.672,127.448 C75.9840066,128.728006 76.64,130.626654 76.64,133.144 L76.64,143 L71.648,143 L71.648,133.912 C71.648,132.54666 71.3493363,131.528003 70.752,130.856 C70.1546637,130.183997 69.2906723,129.848 68.16,129.848 C66.901327,129.848 65.8986704,130.237329 65.152,131.016 C64.4053296,131.794671 64.032,132.951992 64.032,134.488 L64.032,143 L59.04,143 L59.04,119.256 L64.032,119.256 L64.032,127.576 C64.6933366,126.914663 65.4933286,126.408002 66.432,126.056 C67.3706714,125.703998 68.3946611,125.528 69.504,125.528 Z M88.096,125.528 C90.76268,125.528 92.8106595,126.16266 94.24,127.432 C95.6693405,128.70134 96.384,130.615987 96.384,133.176 L96.384,143 L91.712,143 L91.712,140.856 C90.7733286,142.456008 89.0240128,143.256 86.464,143.256 C85.1413267,143.256 83.9946715,143.032002 83.024,142.584 C82.0533285,142.135998 81.3120026,141.517337 80.8,140.728 C80.2879974,139.938663 80.032,139.042672 80.032,138.04 C80.032,136.439992 80.6346606,135.181338 81.84,134.264 C83.0453394,133.346662 84.9066541,132.888 87.424,132.888 L91.392,132.888 C91.392,131.799995 91.0613366,130.96267 90.4,130.376 C89.7386634,129.78933 88.7466733,129.496 87.424,129.496 C86.5066621,129.496 85.6053378,129.639999 84.72,129.928 C83.8346622,130.216001 83.0826698,130.605331 82.464,131.096 L80.672,127.608 C81.6106714,126.946663 82.7359934,126.434668 84.048,126.072 C85.3600066,125.709332 86.7093264,125.528 88.096,125.528 Z M87.712,139.896 C88.5653376,139.896 89.3226634,139.698669 89.984,139.304 C90.6453366,138.909331 91.1146653,138.328004 91.392,137.56 L91.392,135.8 L87.968,135.8 C85.9199898,135.8 84.896,136.471993 84.896,137.816 C84.896,138.456003 85.1466642,138.962665 85.648,139.336 C86.1493358,139.709335 86.837329,139.896 87.712,139.896 Z M100.896,125.784 L105.888,125.784 L105.888,143 L100.896,143 L100.896,125.784 Z M103.392,123.384 C102.474662,123.384 101.728003,123.117336 101.152,122.584 C100.575997,122.050664 100.288,121.389337 100.288,120.6 C100.288,119.810663 100.575997,119.149336 101.152,118.616 C101.728003,118.082664 102.474662,117.816 103.392,117.816 C104.309338,117.816 105.055997,118.071997 105.632,118.584 C106.208003,119.096003 106.496,119.735996 106.496,120.504 C106.496,121.336004 106.208003,122.023997 105.632,122.568 C105.055997,123.112003 104.309338,123.384 103.392,123.384 Z M120.992,125.528 C123.125344,125.528 124.847993,126.167994 126.16,127.448 C127.472007,128.728006 128.128,130.626654 128.128,133.144 L128.128,143 L123.136,143 L123.136,133.912 C123.136,132.54666 122.837336,131.528003 122.24,130.856 C121.642664,130.183997 120.778672,129.848 119.648,129.848 C118.389327,129.848 117.38667,130.237329 116.64,131.016 C115.89333,131.794671 115.52,132.951992 115.52,134.488 L115.52,143 L110.528,143 L110.528,125.784 L115.296,125.784 L115.296,127.8 C115.957337,127.074663 116.778662,126.514669 117.76,126.12 C118.741338,125.725331 119.818661,125.528 120.992,125.528 Z"/>
</svg>
